Costumes/S-story-3.svg

<?xml version="1.0" encoding="utf-8"?>
<!-- Generator: Adobe Illustrator 18.0.0, SVG Export Plug-In . SVG Version: 6.00 Build 0)  -->
<!DOCTYPE svg PUBLIC "-//W3C//DTD SVG 1.1//EN" "http://www.w3.org/Graphics/SVG/1.1/DTD/svg11.dtd">
<svg version="1.1" id="Layer_2" xmlns="http://www.w3.org/2000/svg" xmlns:xlink="http://www.w3.org/1999/xlink" x="0px" y="0px"
	 viewBox="0 0 28.9 47.8" enable-background="new 0 0 28.9 47.8" xml:space="preserve">
<g>
	<path fill="#41A2F2" d="M28.1,40.3c-0.3,0.8-0.7,1.6-1.3,2.3c-1.7,2.1-3.7,3.8-6.5,4.5c-3.6,0.9-7.2,1-10.8,0.3
		c-2.2-0.5-4.5-0.9-6.3-2c-0.4,0.3-0.7,0.6-1,0.8c-0.1,0-0.1,0.1-0.2,0.1c-1.9,0.5-2.1,0.4-2-1.5c0.1-2.8,0.3-5.5,0.5-8.3
		c0-0.3-0.1-0.6-0.2-1c0.7,0,1.5,0,2.3,0c0.2,0,0.4,0.3,0.4,0.5c0.6,1.6,0.9,3.3,1.8,4.7c1.2,1.8,2.9,3.2,5.1,4
		c2.4,0.8,4.7,0.6,7-0.1c3-1,4.7-3.3,5.9-6.1c0.8-1.9,0.3-3.6-0.1-5.4c-0.3-1.2-1.3-2-2.3-2.6c-1.5-1-3.1-2-4.7-2.9
		c-1.1-0.6-2.2-1-3.4-1.5c-2.9-1.3-5.5-3-7.9-5c-2.4-1.9-3.3-4.5-3.8-7.3C0.4,12,0.4,10.5,1,9.1c0.7-1.7,1.7-3.2,2.9-4.6
		c1.9-2.1,4.2-3.4,6.8-4.1c2.9-0.7,5.9-0.7,8.8,0.5c1.2,0.5,2.4,1,3.6,1.5c0.5,0.2,0.9,0.4,1.4,0.7c0-0.2,0.1-0.3,0-0.4
		c-0.3-1.3,0.1-1.1,1.1-1.2c2,0,1.9,0,1.8,1.9c-0.2,2.3-0.2,4.7-0.3,7c0,0.2,0,0.5,0,0.8c-0.9-0.1-1.8-0.2-2.6-0.3
		c-0.1,0-0.3-0.2-0.3-0.4c0-2-1.1-3.5-2.4-4.9c-2-2.2-4.6-3.3-7.6-2.9c-2.8,0.3-5.3,1.3-6.9,3.8c-1.8,2.9-1.8,6-0.3,9
		c0.5,1,1.6,1.8,2.6,2.5c3,2.1,6.6,3,10.1,4.2c1.3,0.4,2.5,0.9,3.7,1.6c2.9,1.6,4.5,4.2,5.2,7.5C29.1,34.4,29.1,37.3,28.1,40.3z"/>
</g>
</svg>

<?xml version="1.0" encoding="UTF-8" standalone="no"?>
<!-- Generator: Adobe Illustrator 18.0.0, SVG Export Plug-In . SVG Version: 6.00 Build 0)  -->

<svg
   version="1.1"
   id="Layer_2"
   x="0px"
   y="0px"
   viewBox="0 0 28.949147 47.934357"
   enable-background="new 0 0 28.9 47.8"
   xml:space="preserve"
   sodipodi:docname="S-story-3.svg"
   width="28.949146"
   height="47.934357"
   xmlns:inkscape="http://www.inkscape.org/namespaces/inkscape"
   xmlns:sodipodi="http://sodipodi.sourceforge.net/DTD/sodipodi-0.dtd"
   xmlns="http://www.w3.org/2000/svg"
   xmlns:svg="http://www.w3.org/2000/svg"><defs
   id="defs9" /><sodipodi:namedview
   id="namedview7"
   pagecolor="#ffffff"
   bordercolor="#000000"
   borderopacity="0.25"
   inkscape:showpageshadow="2"
   inkscape:pageopacity="0.0"
   inkscape:pagecheckerboard="0"
   inkscape:deskcolor="#d1d1d1" />
<g
   id="g4"
   transform="translate(0.02071849,0.07498173)">
	<path
   fill="#41a2f2"
   d="m 28.1,40.3 c -0.3,0.8 -0.7,1.6 -1.3,2.3 -1.7,2.1 -3.7,3.8 -6.5,4.5 -3.6,0.9 -7.2,1 -10.8,0.3 C 7.3,46.9 5,46.5 3.2,45.4 2.8,45.7 2.5,46 2.2,46.2 2.1,46.2 2.1,46.3 2,46.3 0.1,46.8 -0.1,46.7 0,44.8 0.1,42 0.3,39.3 0.5,36.5 c 0,-0.3 -0.1,-0.6 -0.2,-1 0.7,0 1.5,0 2.3,0 0.2,0 0.4,0.3 0.4,0.5 0.6,1.6 0.9,3.3 1.8,4.7 1.2,1.8 2.9,3.2 5.1,4 2.4,0.8 4.7,0.6 7,-0.1 3,-1 4.7,-3.3 5.9,-6.1 0.8,-1.9 0.3,-3.6 -0.1,-5.4 -0.3,-1.2 -1.3,-2 -2.3,-2.6 -1.5,-1 -3.1,-2 -4.7,-2.9 -1.1,-0.6 -2.2,-1 -3.4,-1.5 -2.9,-1.3 -5.5,-3 -7.9,-5 C 2,19.2 1.1,16.6 0.6,13.8 0.4,12 0.4,10.5 1,9.1 1.7,7.4 2.7,5.9 3.9,4.5 5.8,2.4 8.1,1.1 10.7,0.4 c 2.9,-0.7 5.9,-0.7 8.8,0.5 1.2,0.5 2.4,1 3.6,1.5 0.5,0.2 0.9,0.4 1.4,0.7 0,-0.2 0.1,-0.3 0,-0.4 -0.3,-1.3 0.1,-1.1 1.1,-1.2 2,0 1.9,0 1.8,1.9 -0.2,2.3 -0.2,4.7 -0.3,7 0,0.2 0,0.5 0,0.8 -0.9,-0.1 -1.8,-0.2 -2.6,-0.3 -0.1,0 -0.3,-0.2 -0.3,-0.4 C 24.2,8.5 23.1,7 21.8,5.6 19.8,3.4 17.2,2.3 14.2,2.7 11.4,3 8.9,4 7.3,6.5 c -1.8,2.9 -1.8,6 -0.3,9 0.5,1 1.6,1.8 2.6,2.5 3,2.1 6.6,3 10.1,4.2 1.3,0.4 2.5,0.9 3.7,1.6 2.9,1.6 4.5,4.2 5.2,7.5 0.5,3.1 0.5,6 -0.5,9 z"
   id="path2" />
</g>
</svg>
